src/images/Nutanix/Process1.svg

<svg fill="none" height="215" viewBox="0 0 215 215" width="215" xmlns="http://www.w3.org/2000/svg"><path d="m195 0h-175c-11.0457 0-20 8.9543-20 20v175c0 11.046 8.9543 20 20 20h175c11.046 0 20-8.954 20-20v-175c0-11.0457-8.954-20-20-20z" fill="#034ea2"/><g fill="#fbfbfb"><path d="m164.25 44.5h-112.4995c-6.875 0-12.5 5.625-12.5 12.5v75c0 6.875 5.625 12.5 12.5 12.5h43.75l-12.5 18.75v6.25h49.9995v-6.25l-12.5-18.75h43.75c6.875 0 12.5-5.625 12.5-12.5v-75c0-6.875-5.625-12.5-12.5-12.5zm0 75h-112.4995v-62.5h112.4995z"/><path d="m66.625 79.4167h27.9583v5.0833h-27.9583zm0-5.0834h27.9583v-5.0833h-27.9583zm0 20.3334h17.7917v-5.0834h-17.7917zm38.15-7.9555 1.805-1.8045c.235-.2357.514-.4226.822-.5501.307-.1276.637-.1932.97-.1932s.662.0656.97.1932c.307.1275.587.3144.822.5501l1.804 1.8045c.992.9913.992 2.5925 0 3.5838l-1.804 1.8046zm-1.804 1.8046-13.471 13.4712v5.388h5.3883l13.4707-13.4708z"/><path d="m92.9568 69.0466h-24.8066c-1.4599 0-2.6434 1.1835-2.6434 2.6434 0 1.4598 1.1835 2.6433 2.6434 2.6433h24.8066c1.4599 0 2.6433-1.1835 2.6433-2.6433 0-1.4599-1.1834-2.6434-2.6433-2.6434z"/><path d="m92.9568 79.2134h-24.8066c-1.4599 0-2.6434 1.1834-2.6434 2.6433s1.1835 2.6433 2.6434 2.6433h24.8066c1.4599 0 2.6433-1.1834 2.6433-2.6433s-1.1834-2.6433-2.6433-2.6433z"/><path d="m82.7902 89.3799h-14.64c-1.4599 0-2.6434 1.1835-2.6434 2.6433 0 1.4599 1.1835 2.6434 2.6434 2.6434h14.64c1.4599 0 2.6433-1.1835 2.6433-2.6434 0-1.4598-1.1834-2.6433-2.6433-2.6433z"/></g></svg>

<svg width="215" height="215" viewBox="0 0 215 215" fill="none" xmlns="http://www.w3.org/2000/svg">
<path d="M195 0H20C8.9543 0 0 8.9543 0 20V195C0 206.046 8.9543 215 20 215H195C206.046 215 215 206.046 215 195V20C215 8.9543 206.046 0 195 0Z" fill="#034EA2"/>
<path d="M164.25 44.5H51.7505C44.8755 44.5 39.2505 50.125 39.2505 57V132C39.2505 138.875 44.8755 144.5 51.7505 144.5H95.5005L83.0005 163.25V169.5H133V163.25L120.5 144.5H164.25C171.125 144.5 176.75 138.875 176.75 132V57C176.75 50.125 171.125 44.5 164.25 44.5ZM164.25 119.5H51.7505V57H164.25V119.5Z" fill="#FBFBFB"/>
<path d="M66.625 79.4167H94.5833V84.5H66.625V79.4167ZM66.625 74.3333H94.5833V69.25H66.625V74.3333ZM66.625 94.6667H84.4167V89.5833H66.625V94.6667ZM104.775 86.7112L106.58 84.9067C106.815 84.671 107.094 84.4841 107.402 84.3566C107.709 84.229 108.039 84.1634 108.372 84.1634C108.705 84.1634 109.034 84.229 109.342 84.3566C109.649 84.4841 109.929 84.671 110.164 84.9067L111.968 86.7112C112.96 87.7025 112.96 89.3037 111.968 90.295L110.164 92.0996L104.775 86.7112ZM102.971 88.5158L89.5 101.987V107.375H94.8883L108.359 93.9042L102.971 88.5158Z" fill="#FBFBFB"/>
<path d="M92.9568 69.0466H68.1502C66.6903 69.0466 65.5068 70.2301 65.5068 71.69V71.69C65.5068 73.1498 66.6903 74.3333 68.1502 74.3333H92.9568C94.4167 74.3333 95.6001 73.1498 95.6001 71.69C95.6001 70.2301 94.4167 69.0466 92.9568 69.0466Z" fill="#FBFBFB"/>
<path d="M92.9568 79.2134H68.1502C66.6903 79.2134 65.5068 80.3968 65.5068 81.8567C65.5068 83.3166 66.6903 84.5 68.1502 84.5H92.9568C94.4167 84.5 95.6001 83.3166 95.6001 81.8567C95.6001 80.3968 94.4167 79.2134 92.9568 79.2134Z" fill="#FBFBFB"/>
<path d="M82.7902 89.3799H68.1502C66.6903 89.3799 65.5068 90.5634 65.5068 92.0232C65.5068 93.4831 66.6903 94.6666 68.1502 94.6666H82.7902C84.2501 94.6666 85.4335 93.4831 85.4335 92.0232C85.4335 90.5634 84.2501 89.3799 82.7902 89.3799Z" fill="#FBFBFB"/>
</svg>
